icons/mozilla.svg

<?xml version="1.0" encoding="UTF-8"?>
<svg width="512px" height="165px" viewBox="0 0 512 165" version="1.1" xmlns="http://www.w3.org/2000/svg" xmlns:xlink="http://www.w3.org/1999/xlink" preserveAspectRatio="xMidYMid">
    <g>
        <path d="M0,0 L512,0 L512,164.197528 L0,164.197528 L0,0 Z M144.940558,123.833999 L144.931709,109.152329 L135.931553,109.152329 L135.931553,78.2314407 C135.931553,62.1780659 124.825166,54.8239564 112.674514,54.8239564 C102.019462,54.8239564 94.3733126,60.3815746 90.6210353,69.3817302 C87.3200933,59.4789042 78.3022384,54.8239564 68.5675568,54.8239564 C59.1249157,54.8239564 52.0716965,59.178014 48.0185291,66.3728286 L48.0185291,56.1779621 L18.9295307,56.1779621 L18.9295307,70.8773313 L28.6642123,70.8773313 L28.6642123,109.152329 L19.6640567,109.152329 L19.6640567,123.851698 L60.921407,123.851698 L60.921407,109.152329 L48.0539279,109.152329 L48.0539279,85.5767004 C48.0539279,76.1252096 51.8062052,69.5233256 61.1072509,69.5233256 C68.7622505,69.5233256 72.6561231,74.0278282 72.6561231,85.7271454 L72.6561231,123.851698 L100.975197,123.851698 L100.975197,109.152329 L92.0192896,109.152329 L92.0192896,85.5767004 C92.0192896,76.1252096 95.7715668,69.5233256 105.072613,69.5233256 C112.718762,69.5233256 116.621485,74.0278282 116.621485,85.7271454 L116.621485,123.833999 L144.940558,123.833999 Z M187.9944,125.3296 L187.9944,125.33845 C209.596543,125.33845 225.198583,111.683346 225.180883,90.0723533 C225.180883,71.1693717 213.304572,54.8151067 189.020966,54.8151067 C164.737361,54.8151067 152.737153,71.1693717 152.737153,90.9750238 C152.737153,112.577167 167.144482,125.3296 187.9944,125.3296 Z M188.737775,69.6737706 L188.737775,69.6737706 C197.897226,69.6737706 205.242486,75.8243194 205.269035,89.4794227 C205.269035,102.382301 198.667151,110.479786 188.61388,110.479786 C178.082724,110.479786 172.684401,101.47963 172.684401,89.7803129 C172.684401,77.0190303 178.834949,69.6737706 188.737775,69.6737706 Z M295.713076,123.833999 L299.87244,100.143324 L284.57129,98.6477228 L281.420793,109.152329 L259.553159,109.152329 L297.075931,66.3728286 L295.58033,56.1691124 L236.110276,56.1691124 L233.712004,79.8774868 L247.667998,81.3730879 L250.668049,70.8684815 L271.818857,70.8684815 L234.650073,113.630283 L236.59701,123.833999 L295.713076,123.833999 Z M332.315478,80.4704174 L332.315478,56.1779621 L312.058491,56.1779621 L312.058491,80.4704174 L332.315478,80.4704174 Z M332.315478,123.833999 L332.315478,99.5326938 L312.058491,99.5326938 L312.058491,123.833999 L332.315478,123.833999 Z M342.935131,123.833999 L362.015107,123.833999 L391.27225,20.6552243 L372.218823,20.6552243 L342.935131,123.833999 Z M382.245545,123.833999 L401.325521,123.833999 L430.564964,20.6552243 L411.511537,20.6552243 L382.245545,123.833999 Z M483.061447,125.3296 L483.087996,125.33845 C487.348816,125.284481 491.532002,124.190838 495.274047,122.152554 L495.123602,111.948838 C494.199986,112.233842 493.240478,112.385814 492.273995,112.400173 C489.114649,112.400173 487.619048,111.046167 487.619048,107.143445 L487.619048,77.7358569 C487.619048,62.2842624 475.31795,54.7797079 460.760176,54.7797079 C449.65379,54.7797079 443.653686,56.1691124 431.803924,60.9745052 L428.803872,78.5234811 L444.255466,80.178377 L446.759934,70.5764411 C449.910431,68.930395 453.060928,68.6295048 457.114096,68.6295048 C468.070037,68.6295048 468.220482,76.877435 468.220482,83.7802091 L468.220482,86.0280356 C464.534588,85.5952956 460.825168,85.3943072 457.114096,85.4262553 C441.662501,85.4262553 425.609126,89.3201279 425.609126,105.975283 C425.609126,120.072872 436.724363,125.3296 446.459044,125.3296 C457.406136,125.3296 464.30891,118.727716 468.211633,111.824942 C469.114303,120.072872 474.061291,125.3296 483.061447,125.3296 Z M445.582923,103.727457 L445.582923,103.727457 C445.582923,96.3821969 451.583027,94.4352606 458.51235,94.4441103 C461.773622,94.5168728 465.026102,94.8125528 468.247031,95.3290813 C467.804546,106.577063 460.450436,111.532901 453.547662,111.532901 C447.680304,111.532901 445.582923,108.081514 445.582923,103.727457 Z" fill="#000000" fill-rule="nonzero"></path>
    </g>
</svg>

<svg xmlns="http://www.w3.org/2000/svg" viewBox="0 0 512 164.198">
  <path d="M0 0h512v164.198H0zm144.94 123.834-.008-14.682h-9v-30.92c0-16.054-11.107-23.408-23.258-23.408-10.655 0-18.3 5.558-22.053 14.558-3.301-9.903-12.319-14.558-22.054-14.558-9.442 0-16.495 4.354-20.549 11.549V56.178H18.93v14.7h9.734v38.274h-9v14.7h41.257v-14.7H48.054V85.577c0-9.452 3.752-16.054 13.053-16.054 7.655 0 11.55 4.505 11.55 16.204v38.125h28.318v-14.7H92.02V85.577c0-9.452 3.753-16.054 13.054-16.054 7.646 0 11.548 4.505 11.548 16.204v38.107zm43.054 1.496v.009c21.603 0 37.205-13.655 37.187-35.266 0-18.903-11.876-35.258-36.16-35.258s-36.284 16.355-36.284 36.16c0 21.602 14.407 34.355 35.257 34.355zm.744-55.656c9.16 0 16.504 6.15 16.531 19.805 0 12.903-6.602 21-16.655 21-10.531 0-15.93-9-15.93-20.699 0-12.761 6.151-20.106 16.054-20.106zm106.975 54.16 4.16-23.69-15.302-1.496-3.15 10.504h-21.868l37.523-42.78-1.496-10.203h-59.47l-2.398 23.708 13.956 1.496 3-10.505h21.15L234.65 113.63l1.947 10.204zm36.602-43.364V56.178h-20.257V80.47zm0 43.364V99.533h-20.257v24.301zm10.62 0h19.08l29.257-103.179H372.22zm39.31 0h19.08l29.24-103.179h-19.053zm100.816 1.496.027.009a26.169 26.169 0 0 0 12.186-3.186l-.15-10.204c-.924.285-1.883.437-2.85.451-3.16 0-4.655-1.354-4.655-5.256V77.736c0-15.452-12.301-22.956-26.859-22.956-11.106 0-17.106 1.39-28.956 6.195l-3 17.548 15.452 1.655 2.504-9.602c3.15-1.646 6.301-1.946 10.354-1.946 10.956 0 11.107 8.247 11.107 15.15v2.248a88.7 88.7 0 0 0-11.107-.602c-15.451 0-31.505 3.894-31.505 20.55 0 14.097 11.115 19.354 20.85 19.354 10.947 0 17.85-6.602 21.753-13.505.902 8.248 5.85 13.505 14.85 13.505zm-37.478-21.603c0-7.345 6-9.292 12.93-9.283 3.26.073 6.513.369 9.734.885-.442 11.248-7.797 16.204-14.7 16.204-5.867 0-7.964-3.451-7.964-7.806z"/>
</svg>
